packages/icons/src/stop.svg

<svg width="15" height="15" viewBox="0 0 15 15" fill="none" xmlns="http://www.w3.org/2000/svg">
  <path
    fill-rule="evenodd"
    clip-rule="evenodd"
    d="M2 3C2 2.44772 2.44772 2 3 2H12C12.5523 2 13 2.44772 13 3V12C13 12.5523 12.5523 13 12 13H3C2.44772 13 2 12.5523 2 12V3ZM12 3H3V12H12V3Z"
    fill="currentColor"
  />
</svg>

<svg xmlns="http://www.w3.org/2000/svg" width="15" height="15" fill="none"><path fill="currentColor" fill-rule="evenodd" d="M2 3a1 1 0 0 1 1-1h9a1 1 0 0 1 1 1v9a1 1 0 0 1-1 1H3a1 1 0 0 1-1-1zm10 0H3v9h9z" clip-rule="evenodd"/></svg>
